X: 41386
T: Tweedside Lasses, The
R: reel
M: 4/4
K: Dmajor
A,|:D2 FE D3 A,|B,C DB, A,2 B,C|D2 DF A2 GA|B2 E2 E2 FE|
D2 FE D3 A,|B,C DB, A,2 B,C|DEFB AFEF|D2 B,2 B,2 A2:|
dcde fedc|dcBA F2 ED|d2 cd e2 de|f2 B2 B2 c2|
dcde fedc|dcBA F2 ED|EFAB AFEF|D2 B,2 B,2 A2|
dcde fedc|dcBA F2 ED|d2 cd e2 de|f2 B2 B2 c2|
dfce BcAB|FAEC A,2 B,C|DEFf dBcA|B2 B,2 B,2 A2|

